!!!OTL: Tanzlied im Mai.
!!!ARE: Europa, Mitteleuropa, Deutschland
!!!SCT: A0301
!!!TXL: @@GMH
!!!YEM: Copyright 1995, estate of Helmut Schaffrath.
**kern	**text
*M4/2	*
*met(c|)	*
*clefC3	*
*k[b-]	*
*G:dor	*
=1	=1
!LO:TX:a:t=dor. tr.	!
1ryy	.
2ryy	.
{2G	I._Jm
=2	=2
1G	mei-
2d	-en,
2e	im
=3	=3
1f	mei-
2e}	-en
{2d	hort
=4	=4
2g	man
2d	die
2d	ha-
4c/	-nen
4B-	.
=5	=5
1A	krä-
2G}	-en,
{2G	Freu
=6	=6
1G	dich,
2d	du
2e	ſchönes
=7	=7
1f	pauer-
2e}	-maidl,
{2d	wir
=8	=8
2g	wölln
2d	den
2d	ha-
4c/	-ber
4B-	.
=9	=9
1A	ſä-
2G}	-en,*)
{2G	Du
=10	=10
2A	biſt
2B-	mir
2c/	lie-
2c/	-ber
=11	=11
2B-	denn
2A	der
2G}	knecht,
{2G	du
=12	=12
2A	thuſt
2B-	mir
2c/	mei-
2c/	-ne
=13	=13
2B-	al-
2A	-te
1G}	recht.
=14||	=14||
{1B-	Pumb,
2c	meid-
2c	-lein,
=15	=15
1d	pumb!
2r}	.
{2d	Jch
=16	=16
2f	freu
2f	mich
2e	dein
2e	gantʒ
=17	=17
2d	vm
2d	vnd
1A}	vmb,
=18	=18
{2f	wo
2f	ich
2e	freuntlich
2e	.
=19	=19
2d	ʒu
2d	dir
1A}	kum,
=20	=20
{2f	hinder
4f	.
4f	dem
2e	of-
4e	-fen
4e	vnd
=21	=21
2d	vm
2d	und
2A}	vmb.
{2A	Freu
=22	=22
2G	dich,
2A	du
2B-	ſchö-
2c/	-nes
=23	=23
1d	paurnmeidl:
2d}	.
{2d	ich
=24	=24
2c/	kum,
2c/	ich
2A	kum,
2A	ich
=25	=25
2G	kum,
2G	ich
2A	kum,
2A	ich
=26	=26
2G	kum,
2G	ich
2A	kum,
2A	ich
=27	=27
0G/ll}	kum.
==	==
!!!GTL: Tanz- und Kranzlieder
!!!AGN: Romanze, Ballade, Lied
!! Ott 1534 No. 96.
!!!ONB: ESAC (Essen Associative Code) Database: ALTDEU
!!!AMT: simple quadruple
!!!AIN: vox
!!!EED: Helmut Schaffrath
!!!EEV: 1.0
!!@@COMMENT: "'Haber fäen' bedeutet der Liebe pflegen, beiliegen."
!!@@END:
!!!RDF**kern: l = terminal long
!!!AMD: Dorian
!!!URL-scan: https://rosdok.uni-rostock.de/mcrviewer/recordIdentifier/rosdok_ppn738218359/iview2/phys_0458.iview2?x=-495.6391625615763&y=2112.5763547003735&scale=0.4629418472063854&rotation=0&layout=singlePageLayout&logicalDiv=log_0012
!!!ENC: Anna Maria Matuszewska
!!!EEV: 2024/12/03
*-	*-
